Numix-GalliumOS/64/mimetypes/application-image-tga.svg

<svg xmlns="http://www.w3.org/2000/svg" xmlns:xlink="http://www.w3.org/1999/xlink" width="64px" height="64px" viewBox="0 0 64 64" version="1.1">
<g id="surface1">
<path style=" stroke:none;fill-rule:nonzero;fill:rgb(21.960784%,63.921569%,30.588235%);fill-opacity:1;" d="M 10.671875 0 C 9.296875 0 8 1.355469 8 2.789062 L 8 61.210938 C 8 62.566406 9.375 64 10.671875 64 L 53.328125 64 C 54.625 64 56 62.566406 56 61.210938 L 56 18 L 38 0 Z M 10.671875 0 "/>
<path style=" stroke:none;fill-rule:nonzero;fill:rgb(0%,0%,0%);fill-opacity:0.196078;" d="M 42 18 L 56 32 L 56 18 Z M 42 18 "/>
<path style=" stroke:none;fill-rule:nonzero;fill:rgb(100%,100%,100%);fill-opacity:0.392157;" d="M 38 0 L 55.984375 18 L 40.757812 18 C 39.410156 18 38 16.574219 38 15.226562 Z M 38 0 "/>
<path style=" stroke:none;fill-rule:nonzero;fill:rgb(100%,100%,100%);fill-opacity:1;" d="M 23.289062 22 C 22.585938 22.066406 21.984375 22.8125 22 23.605469 L 22 40.433594 C 22.007812 41.261719 22.667969 42.007812 23.40625 42 L 40.628906 42 C 41.355469 41.984375 41.992188 41.253906 42 40.433594 L 42 23.605469 C 42.015625 22.769531 41.371094 22.007812 40.628906 22 Z M 24 24 L 40 24 L 40 35.402344 L 35.296875 30.085938 L 34.117188 31.21875 L 32.316406 32.859375 L 31.214844 31.761719 L 28.386719 27.9375 L 24 33.597656 Z M 24 24 "/>
<path style=" stroke:none;fill-rule:nonzero;fill:rgb(0%,0%,0%);fill-opacity:0.196078;" d="M 8 48 L 8 61.335938 C 8 62.632812 9.375 64 10.664062 64 L 53.335938 64 C 54.625 64 56 62.632812 56 61.335938 L 56 48 Z M 8 48 "/>
<path style=" stroke:none;fill-rule:nonzero;fill:rgb(100%,100%,100%);fill-opacity:1;" d="M 26.675781 51.117188 L 26.675781 52.910156 L 23.527344 52.910156 L 23.527344 61.984375 L 21.125 61.984375 L 21.125 52.910156 L 17.964844 52.910156 L 17.964844 51.117188 L 26.675781 51.117188 "/>
<path style=" stroke:none;fill-rule:nonzero;fill:rgb(100%,100%,100%);fill-opacity:1;" d="M 33.199219 52.753906 C 32.625 52.753906 32.152344 52.84375 31.761719 53.035156 C 31.378906 53.21875 31.054688 53.484375 30.796875 53.824219 C 30.554688 54.148438 30.375 54.546875 30.257812 55.011719 C 30.148438 55.46875 30.097656 55.984375 30.097656 56.542969 C 30.097656 57.847656 30.324219 58.804688 30.78125 59.425781 C 31.230469 60.03125 31.894531 60.339844 32.773438 60.339844 C 32.917969 60.339844 33.066406 60.332031 33.234375 60.324219 C 33.40625 60.308594 33.554688 60.289062 33.699219 60.265625 L 33.699219 56.300781 L 36.082031 56.300781 L 36.082031 61.726562 C 35.800781 61.820312 35.351562 61.929688 34.746094 62.042969 C 34.15625 62.160156 33.433594 62.21875 32.574219 62.21875 C 31.828125 62.21875 31.15625 62.101562 30.546875 61.871094 C 29.949219 61.621094 29.441406 61.261719 29.019531 60.796875 C 28.59375 60.316406 28.261719 59.726562 28.03125 59.019531 C 27.796875 58.304688 27.679688 57.480469 27.679688 56.542969 C 27.679688 55.621094 27.8125 54.804688 28.089844 54.109375 C 28.363281 53.394531 28.726562 52.792969 29.195312 52.3125 C 29.660156 51.832031 30.207031 51.472656 30.839844 51.242188 C 31.46875 50.992188 32.144531 50.875 32.867188 50.875 C 33.332031 50.875 33.746094 50.910156 34.105469 50.976562 C 34.480469 51.03125 34.804688 51.109375 35.078125 51.191406 C 35.34375 51.273438 35.566406 51.355469 35.734375 51.449219 C 35.910156 51.546875 36.050781 51.613281 36.140625 51.664062 L 35.519531 53.382812 C 35.234375 53.21875 34.886719 53.078125 34.472656 52.945312 C 34.0625 52.820312 33.640625 52.753906 33.199219 52.753906 "/>
<path style=" stroke:none;fill-rule:nonzero;fill:rgb(100%,100%,100%);fill-opacity:1;" d="M 43.777344 61.984375 L 43.222656 59.476562 L 40.03125 59.476562 L 39.480469 61.984375 L 37.003906 61.984375 C 37.578125 59.851562 38.152344 57.898438 38.734375 56.144531 C 39.308594 54.375 39.871094 52.695312 40.414062 51.117188 L 43.003906 51.117188 C 43.570312 52.710938 44.136719 54.398438 44.691406 56.195312 C 45.257812 57.972656 45.804688 59.910156 46.339844 61.984375 L 43.777344 61.984375 M 41.652344 53.226562 C 41.527344 53.632812 41.402344 54.023438 41.285156 54.398438 C 41.1875 54.765625 41.078125 55.128906 40.976562 55.488281 C 40.886719 55.84375 40.796875 56.203125 40.703125 56.558594 C 40.628906 56.925781 40.554688 57.300781 40.472656 57.691406 L 42.8125 57.691406 C 42.738281 57.300781 42.65625 56.925781 42.582031 56.558594 C 42.507812 56.203125 42.414062 55.84375 42.308594 55.488281 C 42.222656 55.128906 42.117188 54.765625 42 54.398438 C 41.898438 54.023438 41.785156 53.632812 41.652344 53.226562 "/>
</g>
</svg>

<svg xmlns="http://www.w3.org/2000/svg" viewBox="0 0 64 64">
 <g>
  <path d="m 10.672 0 c -1.375 0 -2.672 1.355 -2.672 2.789 l 0 58.42 c 0 1.355 1.375 2.789 2.672 2.789 l 42.656 0 c 1.297 0 2.672 -1.434 2.672 -2.789 l 0 -43.21 l -18 -18 m -27.328 0" style="fill:#37a34d;fill-opacity:1;stroke:none;fill-rule:nonzero"/>
  <path d="m 42 18 l 14 14 l 0 -14 m -14 0" style="fill:#000;fill-opacity:0.196;stroke:none;fill-rule:nonzero"/>
  <path d="m 38 0 l 17.984 18 l -15.227 0 c -1.348 0 -2.758 -1.426 -2.758 -2.773 m 0 -15.227" style="fill:#fff;fill-opacity:0.392;stroke:none;fill-rule:nonzero"/>
  <path d="m 23.289 22 c -0.703 0.066 -1.305 0.813 -1.289 1.605 l 0 16.828 c 0.008 0.828 0.668 1.574 1.406 1.566 l 17.223 0 c 0.727 -0.016 1.363 -0.746 1.371 -1.566 l 0 -16.828 c 0.016 -0.836 -0.629 -1.598 -1.371 -1.605 m -16.629 2 16 0 0 11.402 -4.703 -5.316 -2.98 2.773 -3.93 -4.922 -4.387 5.66" style="fill:#fff;fill-opacity:1;stroke:none;fill-rule:nonzero"/>
  <path d="m 8 48 l 0 13.336 c 0 1.297 1.375 2.664 2.664 2.664 l 42.672 0 c 1.289 0 2.664 -1.367 2.664 -2.664 l 0 -13.336 m -48 0" style="fill:#000;fill-opacity:0.196;stroke:none;fill-rule:nonzero"/>
  <path d="m 26.676 51.12 l 0 1.793 l -3.148 0 l 0 9.07 l -2.402 0 l 0 -9.07 l -3.16 0 l 0 -1.793 l 8.711 0" style="fill:#fff;fill-opacity:1;stroke:none;fill-rule:nonzero"/>
  <path d="m 33.2 52.754 c -0.574 0 -1.047 0.09 -1.438 0.281 c -0.383 0.184 -0.707 0.449 -0.965 0.789 c -0.242 0.324 -0.422 0.723 -0.539 1.188 c -0.109 0.457 -0.16 0.973 -0.16 1.531 c 0 1.305 0.227 2.262 0.684 2.883 c 0.449 0.605 1.113 0.914 1.992 0.914 c 0.145 0 0.293 -0.008 0.461 -0.016 c 0.172 -0.016 0.32 -0.035 0.465 -0.059 l 0 -3.965 l 2.383 0 l 0 5.426 c -0.281 0.094 -0.73 0.203 -1.336 0.316 c -0.59 0.117 -1.313 0.176 -2.172 0.176 c -0.746 0 -1.418 -0.117 -2.027 -0.348 c -0.598 -0.25 -1.105 -0.609 -1.527 -1.074 c -0.426 -0.48 -0.758 -1.07 -0.988 -1.777 c -0.234 -0.715 -0.352 -1.539 -0.352 -2.477 c 0 -0.922 0.133 -1.738 0.41 -2.434 c 0.273 -0.715 0.637 -1.316 1.105 -1.797 c 0.465 -0.48 1.012 -0.84 1.645 -1.07 c 0.629 -0.25 1.305 -0.367 2.027 -0.367 c 0.465 0 0.879 0.035 1.238 0.102 c 0.375 0.055 0.699 0.133 0.973 0.215 c 0.266 0.082 0.488 0.164 0.656 0.258 c 0.176 0.098 0.316 0.164 0.406 0.215 l -0.621 1.719 c -0.285 -0.164 -0.633 -0.305 -1.047 -0.438 c -0.41 -0.125 -0.832 -0.191 -1.273 -0.191" style="fill:#fff;fill-opacity:1;stroke:none;fill-rule:nonzero"/>
  <path d="m 43.777 61.984 l -0.555 -2.508 l -3.191 0 l -0.551 2.508 l -2.477 0 c 0.574 -2.133 1.148 -4.086 1.73 -5.84 c 0.574 -1.77 1.137 -3.449 1.68 -5.03 l 2.59 0 c 0.566 1.594 1.133 3.281 1.688 5.078 c 0.566 1.777 1.113 3.715 1.648 5.789 l -2.563 0 m -2.125 -8.758 c -0.125 0.406 -0.25 0.797 -0.367 1.172 c -0.098 0.367 -0.207 0.73 -0.309 1.09 c -0.09 0.355 -0.18 0.715 -0.273 1.07 c -0.074 0.367 -0.148 0.742 -0.23 1.133 l 2.34 0 c -0.074 -0.391 -0.156 -0.766 -0.23 -1.133 c -0.074 -0.355 -0.168 -0.715 -0.273 -1.07 c -0.086 -0.359 -0.191 -0.723 -0.309 -1.09 c -0.102 -0.375 -0.215 -0.766 -0.348 -1.172" style="fill:#fff;fill-opacity:1;stroke:none;fill-rule:nonzero"/>
 </g>
</svg>
